res/twitter.svg

<?xml version="1.0" encoding="UTF-8"?><!DOCTYPE svg  PUBLIC '-//W3C//DTD SVG 1.1//EN'  'http://www.w3.org/Graphics/SVG/1.1/DTD/svg11.dtd'><svg version="1.1" viewBox="0 0 24 24" xmlns="http://www.w3.org/2000/svg"><path d="m22.46 6c-0.77 0.35-1.6 0.58-2.46 0.69 0.88-0.53 1.56-1.37 1.88-2.38-0.83 0.5-1.75 0.85-2.72 1.05-0.79-0.86-1.9-1.36-3.16-1.36-2.35 0-4.27 1.92-4.27 4.29 0 0.34 0.04 0.67 0.11 0.98-3.56-0.18-6.73-1.89-8.84-4.48-0.37 0.63-0.58 1.37-0.58 2.15 0 1.49 0.75 2.81 1.91 3.56-0.71 0-1.37-0.2-1.95-0.5v0.03c0 2.08 1.48 3.82 3.44 4.21-0.36 0.1-0.74 0.15-1.13 0.15-0.27 0-0.54-0.03-0.8-0.08 0.54 1.69 2.11 2.95 4 2.98-1.46 1.16-3.31 1.84-5.33 1.84-0.34 0-0.68-0.02-1.02-0.06 1.9 1.22 4.16 1.93 6.58 1.93 7.88 0 12.21-6.54 12.21-12.21 0-0.19 0-0.37-0.01-0.56 0.84-0.6 1.56-1.36 2.14-2.23z" fill="#fff"/></svg>

<?xml version="1.0" encoding="UTF-8"?><!DOCTYPE svg PUBLIC "-//W3C//DTD SVG 1.1//EN" "http://www.w3.org/Graphics/SVG/1.1/DTD/svg11.dtd"><svg xmlns="http://www.w3.org/2000/svg" xmlns:xlink="http://www.w3.org/1999/xlink" version="1.1"  width="24" height="24" viewBox="0 0 24 24"><path fill="#FFFFFF" d="M22.46,6C21.69,6.35 20.86,6.58 20,6.69C20.88,6.16 21.56,5.32 21.88,4.31C21.05,4.81 20.13,5.16 19.16,5.36C18.37,4.5 17.26,4 16,4C13.65,4 11.73,5.92 11.73,8.29C11.73,8.63 11.77,8.96 11.84,9.27C8.28,9.09 5.11,7.38 3,4.79C2.63,5.42 2.42,6.16 2.42,6.94C2.42,8.43 3.17,9.75 4.33,10.5C3.62,10.5 2.96,10.3 2.38,10C2.38,10 2.38,10 2.38,10.03C2.38,12.11 3.86,13.85 5.82,14.24C5.46,14.34 5.08,14.39 4.69,14.39C4.42,14.39 4.15,14.36 3.89,14.31C4.43,16 6,17.26 7.89,17.29C6.43,18.45 4.58,19.13 2.56,19.13C2.22,19.13 1.88,19.11 1.54,19.07C3.44,20.29 5.7,21 8.12,21C16,21 20.33,14.46 20.33,8.79C20.33,8.6 20.33,8.42 20.32,8.23C21.16,7.63 21.88,6.87 22.46,6Z" /></svg>
